icons/circle/48/pokerth.svg

<svg version="1.1" viewBox="0 0 48 48" xmlns="http://www.w3.org/2000/svg">
 <defs>
  <linearGradient id="linearGradient3898" x2="0" y1="47" y2="1" gradientUnits="userSpaceOnUse">
   <stop style="stop-color:#38b93a" offset="0"/>
   <stop style="stop-color:#3fc541" offset="1"/>
  </linearGradient>
 </defs>
 <path d="m36.31 5c5.859 4.062 9.688 10.831 9.688 18.5 0 12.426-10.07 22.5-22.5 22.5-7.669 0-14.438-3.828-18.5-9.688 1.037 1.822 2.306 3.499 3.781 4.969 4.085 3.712 9.514 5.969 15.469 5.969 12.703 0 23-10.298 23-23 0-5.954-2.256-11.384-5.969-15.469-1.469-1.475-3.147-2.744-4.969-3.781zm4.969 3.781c3.854 4.113 6.219 9.637 6.219 15.719 0 12.703-10.297 23-23 23-6.081 0-11.606-2.364-15.719-6.219 4.16 4.144 9.883 6.719 16.219 6.719 12.703 0 23-10.298 23-23 0-6.335-2.575-12.06-6.719-16.219z" style="opacity:.05"/>
 <path d="m41.28 8.781c3.712 4.085 5.969 9.514 5.969 15.469 0 12.703-10.297 23-23 23-5.954 0-11.384-2.256-15.469-5.969 4.113 3.854 9.637 6.219 15.719 6.219 12.703 0 23-10.298 23-23 0-6.081-2.364-11.606-6.219-15.719z" style="opacity:.1"/>
 <path d="m31.25 2.375c8.615 3.154 14.75 11.417 14.75 21.13 0 12.426-10.07 22.5-22.5 22.5-9.708 0-17.971-6.135-21.12-14.75a23 23 0 0 0 44.875 -7 23 23 0 0 0 -16 -21.875z" style="opacity:.2"/>
 <path d="m24 1c12.703 0 23 10.297 23 23s-10.297 23-23 23-23-10.297-23-23 10.297-23 23-23z" style="fill:url(#linearGradient3898)"/>
 <path d="m40.03 7.531c3.712 4.084 5.969 9.514 5.969 15.469 0 12.703-10.297 23-23 23-5.954 0-11.384-2.256-15.469-5.969 4.178 4.291 10.01 6.969 16.469 6.969 12.703 0 23-10.298 23-23 0-6.462-2.677-12.291-6.969-16.469z" style="opacity:.1"/>
 <path transform="matrix(1.1538 0 0 1.7647 -2.6923 -11.176)" d="m37 20.5a13 8.5 0 1 1 -26 0 13 8.5 0 1 1 26 0z" style="opacity:.1"/>
 <path d="m24 9c-2.036 0-3.98 0.421-5.75 1.156l5.75 13.844v-15zm0 15 10.594-10.594c-1.38-1.38-3.01-2.49-4.844-3.25l-5.75 13.844zh15c0-2.036-0.421-3.98-1.156-5.75l-13.844 5.75zl10.594 10.594c1.38-1.38 2.49-3.01 3.25-4.844l-13.844-5.75zv15c2.036 0 3.98-0.421 5.75-1.156l-5.75-13.844zl-10.594 10.594c1.38 1.38 3.01 2.49 4.844 3.25l5.75-13.844zh-15c0 2.036 0.421 3.98 1.156 5.75l13.844-5.75zl-10.594-10.594c-1.38 1.38-2.49 3.01-3.25 4.844l13.844 5.75z" style="fill:#c12d25"/>
 <path d="m24 9v3c-1.632 0-3.175 0.316-4.594 0.906l-1.156-2.75c-1.881 0.779-3.521 1.894-4.875 3.25l2.125 2.094c-1.102 1.102-1.986 2.445-2.594 3.906l-2.75-1.125c-0.747 1.803-1.155 3.736-1.156 5.719h3c0 1.632 0.316 3.175 0.906 4.594l-2.75 1.156c0.779 1.881 1.894 3.521 3.25 4.875l2.094-2.125c1.102 1.102 2.445 1.986 3.906 2.594l-1.125 2.75c1.803 0.747 3.736 1.155 5.719 1.156v-3c1.632 0 3.175-0.316 4.594-0.906l1.156 2.75c1.881-0.779 3.521-1.894 4.875-3.25l-2.125-2.094c1.102-1.102 1.986-2.445 2.594-3.906l2.75 1.125c0.747-1.803 1.155-3.736 1.156-5.719h-3c0-1.632-0.316-3.175-0.906-4.594l2.75-1.156c-0.779-1.881-1.894-3.521-3.25-4.875l-2.094 2.125c-1.102-1.102-2.445-1.986-3.906-2.594l1.125-2.75c-1.803-0.747-3.736-1.155-5.719-1.156z" style="fill:#e7dddd"/>
 <path transform="matrix(1.9556 0 0 1.8925 -20.367 -18.344)" d="m28.313 22.375c0 3.21-2.518 5.813-5.625 5.813s-5.625-2.602-5.625-5.813c0-3.21 2.518-5.813 5.625-5.813s5.625 2.602 5.625 5.813z" style="fill:#c12d25"/>
</svg>

<svg viewBox="0 0 48 48" xmlns="http://www.w3.org/2000/svg">
  <defs>
    <linearGradient id="a" x2="0" y1="47" y2="1" gradientUnits="userSpaceOnUse">
      <stop offset="0" stop-color="#38b93a"/>
      <stop offset="1" stop-color="#3fc541"/>
    </linearGradient>
  </defs>
  <path d="M36.31 5c5.859 4.062 9.688 10.831 9.688 18.5 0 12.426-10.07 22.5-22.5 22.5-7.669 0-14.438-3.828-18.5-9.688a23.24 23.24 0 0 0 3.781 4.969 22.923 22.923 0 0 0 15.469 5.969c12.703 0 23-10.298 23-23a22.92 22.92 0 0 0-5.969-15.469A23.216 23.216 0 0 0 36.31 5zm4.969 3.781A22.911 22.911 0 0 1 47.498 24.5c0 12.703-10.297 23-23 23a22.909 22.909 0 0 1-15.719-6.219C12.939 45.425 18.662 48 24.998 48c12.703 0 23-10.298 23-23 0-6.335-2.575-12.06-6.719-16.219z" opacity=".05"/>
  <path d="M41.28 8.781a22.923 22.923 0 0 1 5.969 15.469c0 12.703-10.297 23-23 23A22.92 22.92 0 0 1 8.78 41.281 22.911 22.911 0 0 0 24.499 47.5c12.703 0 23-10.298 23-23A22.909 22.909 0 0 0 41.28 8.781z" opacity=".1"/>
  <path d="M31.25 2.375C39.865 5.529 46 13.792 46 23.505c0 12.426-10.07 22.5-22.5 22.5-9.708 0-17.971-6.135-21.12-14.75a23 23 0 0 0 44.875-7 23 23 0 0 0-16-21.875z" opacity=".2"/>
  <path d="M24 1c12.703 0 23 10.297 23 23S36.703 47 24 47 1 36.703 1 24 11.297 1 24 1z" fill="url(#a)"/>
  <path d="M40.03 7.531A22.922 22.922 0 0 1 45.999 23c0 12.703-10.297 23-23 23A22.92 22.92 0 0 1 7.53 40.031C11.708 44.322 17.54 47 23.999 47c12.703 0 23-10.298 23-23 0-6.462-2.677-12.291-6.969-16.469z" opacity=".1"/>
  <path d="M39.998 25A15 15 0 1 1 10 25a15 15 0 1 1 30 0z" opacity=".1"/>
  <path d="M24 9c-2.036 0-3.98.421-5.75 1.156L24 24V9zm0 15l10.594-10.594a14.916 14.916 0 0 0-4.844-3.25L24 24zh15c0-2.036-.421-3.98-1.156-5.75L24 24zl10.594 10.594c1.38-1.38 2.49-3.01 3.25-4.844L24 24zv15c2.036 0 3.98-.421 5.75-1.156L24 24zL13.406 34.594c1.38 1.38 3.01 2.49 4.844 3.25L24 24zH9c0 2.036.421 3.98 1.156 5.75L24 24zL13.406 13.406a14.916 14.916 0 0 0-3.25 4.844L24 24z" fill="#c12d25"/>
  <path d="M24 9v3a11.9 11.9 0 0 0-4.594.906l-1.156-2.75a14.956 14.956 0 0 0-4.875 3.25L15.5 15.5a12.126 12.126 0 0 0-2.594 3.906l-2.75-1.125A14.941 14.941 0 0 0 9 24h3a11.9 11.9 0 0 0 .906 4.594l-2.75 1.156a14.956 14.956 0 0 0 3.25 4.875L15.5 32.5a12.126 12.126 0 0 0 3.906 2.594l-1.125 2.75A14.941 14.941 0 0 0 24 39v-3a11.9 11.9 0 0 0 4.594-.906l1.156 2.75a14.956 14.956 0 0 0 4.875-3.25L32.5 32.5a12.126 12.126 0 0 0 2.594-3.906l2.75 1.125A14.941 14.941 0 0 0 39 24h-3a11.9 11.9 0 0 0-.906-4.594l2.75-1.156a14.956 14.956 0 0 0-3.25-4.875L32.5 15.5a12.126 12.126 0 0 0-3.906-2.594l1.125-2.75A14.941 14.941 0 0 0 24 9z" fill="#e7dddd"/>
  <path d="M35.002 24c0 6.076-4.924 11.002-11 11.002s-11-4.924-11-11.001c0-6.075 4.924-11.001 11-11.001s11 4.924 11 11z" fill="#c12d25"/>
</svg>
